icons/mobile/24/svg/translate-active-alt-24.svg

<svg width="24" height="24" viewBox="0 0 24 24" fill="none" xmlns="http://www.w3.org/2000/svg">
<g clip-path="url(#clip0_6274_1030)">
<path d="M16.0859 14.7383H13.9854L15.0352 12.2627L16.0859 14.7383Z" fill="black"/>
<path fill-rule="evenodd" clip-rule="evenodd" d="M18 0C21.314 0 24 2.686 24 6V18C24 21.314 21.314 24 18 24H6C2.686 24 0 21.314 0 18V6C0 2.686 2.686 0 6 0H18ZM9.21289 5.99902C8.85708 5.99907 8.56958 6.28681 8.56934 6.64258C8.56934 6.64558 8.57129 6.64934 8.57129 6.65234V7.27637C7.55834 7.32836 6.55115 7.49044 5.5752 7.77441C5.24322 7.87141 5.05444 8.21785 5.15039 8.54883C5.24639 8.87881 5.58884 9.06961 5.92383 8.97363C7.60481 8.48264 9.38627 8.37932 11.1143 8.65332L10.9434 9.13574C10.5924 10.1237 10.0228 11.0822 9.29785 11.9092C8.75086 11.1932 8.32716 10.4165 8.03516 9.60254L8.02539 9.5752H6.66895L6.82617 10.0146C7.18517 11.0226 7.70693 11.9664 8.37793 12.8174L6.39551 14.0898C6.10881 14.2727 6.00008 14.412 6 14.6787C6 15.0296 6.28386 15.3143 6.63477 15.3145C6.73075 15.3144 6.82038 15.289 6.90137 15.251C7.74616 14.89 8.51669 14.3586 9.22754 13.7588C10.0935 14.6038 11.083 15.2721 12.1689 15.7451L11.5879 17.1133C11.554 17.1912 11.5352 17.2763 11.5352 17.3652C11.5353 17.7171 11.82 18.0029 12.1729 18.0029C12.4348 18.0029 12.6588 17.8441 12.7568 17.6182V17.6211L12.7637 17.6113L13.4424 16.0137H16.627L17.3057 17.6133L17.3438 17.6846C17.3381 17.6757 17.3397 17.6631 17.335 17.6533C17.4419 17.8561 17.6479 17.9989 17.8926 17.999C18.2445 17.999 18.5311 17.7142 18.5312 17.3613C18.5312 17.2735 18.5133 17.1892 18.4814 17.1133L18.4795 17.1143L15.9512 11.1543C15.8512 10.9184 15.6201 10.7648 15.3643 10.7646H14.7051C14.4491 10.7646 14.2182 10.9183 14.1182 11.1543L12.668 14.5684C11.7421 14.1644 10.8954 13.5929 10.1484 12.8721C11.0322 11.8983 11.7215 10.7552 12.1455 9.56445L12.373 8.92383C12.44 8.94182 12.5082 8.95562 12.5752 8.97461C12.6341 8.99158 12.692 9 12.75 9C13.021 8.99997 13.2706 8.82278 13.3496 8.5498C13.4465 8.21786 13.2557 7.8724 12.9248 7.77539C11.925 7.48445 10.8942 7.32244 9.85742 7.27441V6.64258C9.85718 6.2868 9.56872 5.99905 9.21289 5.99902Z" fill="black"/>
</g>
<defs>
<clipPath id="clip0_6274_1030">
<rect width="24" height="24" fill="white"/>
</clipPath>
</defs>
</svg>

<!-- This Source Code Form is subject to the terms of the Mozilla Public
   - License, v. 2.0. If a copy of the MPL was not distributed with this
   - file, You can obtain one at http://mozilla.org/MPL/2.0/. -->
<svg xmlns="http://www.w3.org/2000/svg" width="24" height="24" fill="none" viewBox="0 0 24 24">
    <g fill="#000">
        <path d="M16.086 14.738h-2.1l1.05-2.475z" />
        <path fill-rule="evenodd" d="M18 0a6 6 0 0 1 6 6v12a6 6 0 0 1-6 6H6a6 6 0 0 1-6-6V6a6 6 0 0 1 6-6zM9.213 5.999a.643.643 0 0 0-.644.644l.002.01v.623c-1.013.052-2.02.214-2.996.498a.625.625 0 0 0 .349 1.2 11.9 11.9 0 0 1 5.19-.32l-.17.482a8.7 8.7 0 0 1-1.646 2.773 8.6 8.6 0 0 1-1.263-2.306l-.01-.028H6.67l.157.44a9.9 9.9 0 0 0 1.552 2.802L6.396 14.09c-.287.183-.396.322-.396.589 0 .35.284.635.635.636a.6.6 0 0 0 .266-.064c.845-.361 1.616-.892 2.327-1.492a9.8 9.8 0 0 0 2.94 1.986l-.58 1.368a.637.637 0 0 0 1.169.505v.003l.007-.01.678-1.597h3.185l.679 1.6.038.07c-.006-.008-.004-.02-.009-.03a.632.632 0 0 0 1.196-.293.6.6 0 0 0-.05-.248l-.002.001-2.528-5.96a.64.64 0 0 0-.587-.39h-.659a.64.64 0 0 0-.587.39l-1.45 3.414a8.6 8.6 0 0 1-2.52-1.696 9.9 9.9 0 0 0 1.998-3.308l.227-.64.202.05a.624.624 0 1 0 .35-1.2c-1-.29-2.03-.452-3.068-.5v-.631a.644.644 0 0 0-.644-.644" clip-rule="evenodd" />
    </g>
</svg>
